images/50571413.svg

<?xml version="1.0" encoding="UTF-8"?>
<svg xmlns="http://www.w3.org/2000/svg" xmlns:xlink="http://www.w3.org/1999/xlink" width="300pt" height="300pt" viewBox="0 0 300 300" version="1.1">
<defs>
<g>
<symbol overflow="visible" id="glyph0-0">
<path style="stroke:none;" d="M 0.59375 2.125 L 0.59375 -8.46875 L 6.59375 -8.46875 L 6.59375 2.125 Z M 1.265625 1.453125 L 5.9375 1.453125 L 5.9375 -7.78125 L 1.265625 -7.78125 Z M 1.265625 1.453125 "/>
</symbol>
<symbol overflow="visible" id="glyph0-1">
<path style="stroke:none;" d="M 1.171875 -8.75 L 6.203125 -8.75 L 6.203125 -7.75 L 2.359375 -7.75 L 2.359375 -5.171875 L 5.828125 -5.171875 L 5.828125 -4.171875 L 2.359375 -4.171875 L 2.359375 0 L 1.171875 0 Z M 1.171875 -8.75 "/>
</symbol>
<symbol overflow="visible" id="glyph0-2">
<path style="stroke:none;" d="M 4.734375 -7.953125 C 3.867188 -7.953125 3.179688 -7.628906 2.671875 -6.984375 C 2.171875 -6.347656 1.921875 -5.472656 1.921875 -4.359375 C 1.921875 -3.265625 2.171875 -2.394531 2.671875 -1.75 C 3.179688 -1.113281 3.867188 -0.796875 4.734375 -0.796875 C 5.585938 -0.796875 6.265625 -1.113281 6.765625 -1.75 C 7.273438 -2.394531 7.53125 -3.265625 7.53125 -4.359375 C 7.53125 -5.472656 7.273438 -6.347656 6.765625 -6.984375 C 6.265625 -7.628906 5.585938 -7.953125 4.734375 -7.953125 Z M 4.734375 -8.90625 C 5.953125 -8.90625 6.925781 -8.492188 7.65625 -7.671875 C 8.394531 -6.847656 8.765625 -5.742188 8.765625 -4.359375 C 8.765625 -2.984375 8.394531 -1.882812 7.65625 -1.0625 C 6.925781 -0.238281 5.953125 0.171875 4.734375 0.171875 C 3.503906 0.171875 2.519531 -0.238281 1.78125 -1.0625 C 1.039062 -1.882812 0.671875 -2.984375 0.671875 -4.359375 C 0.671875 -5.742188 1.039062 -6.847656 1.78125 -7.671875 C 2.519531 -8.492188 3.503906 -8.90625 4.734375 -8.90625 Z M 4.734375 -8.90625 "/>
</symbol>
<symbol overflow="visible" id="glyph0-3">
<path style="stroke:none;" d="M 1.171875 -8.75 L 2.765625 -8.75 L 6.65625 -1.4375 L 6.65625 -8.75 L 7.796875 -8.75 L 7.796875 0 L 6.203125 0 L 2.328125 -7.3125 L 2.328125 0 L 1.171875 0 Z M 1.171875 -8.75 "/>
</symbol>
<symbol overflow="visible" id="glyph0-4">
<path style="stroke:none;" d="M 1.171875 -8.75 L 2.359375 -8.75 L 2.359375 -5.15625 L 6.65625 -5.15625 L 6.65625 -8.75 L 7.84375 -8.75 L 7.84375 0 L 6.65625 0 L 6.65625 -4.171875 L 2.359375 -4.171875 L 2.359375 0 L 1.171875 0 Z M 1.171875 -8.75 "/>
</symbol>
</g>
</defs>
<g id="surface23565">
<rect x="0" y="0" width="300" height="300" style="fill:rgb(100%,100%,100%);fill-opacity:1;stroke:none;"/>
<path style="fill:none;stroke-width:1.2;stroke-linecap:butt;stroke-linejoin:miter;stroke:rgb(20%,80%,80%);stroke-opacity:1;stroke-miterlimit:10;" d="M 99.78125 245.613281 L 95.433594 230.933594 "/>
<path style="fill:none;stroke-width:1.2;stroke-linecap:butt;stroke-linejoin:miter;stroke:rgb(0%,0%,0%);stroke-opacity:1;stroke-miterlimit:10;" d="M 95.433594 230.933594 L 91.089844 216.25 "/>
<path style=" stroke:none;fill-rule:nonzero;fill:rgb(100%,100%,100%);fill-opacity:1;" d="M 96.78125 238.613281 L 103.78125 238.613281 L 103.78125 252.613281 L 96.78125 252.613281 Z M 96.78125 238.613281 "/>
<g style="fill:rgb(20%,80%,80%);fill-opacity:1;">
  <use xlink:href="#glyph0-1" x="96.78125" y="249.751953"/>
</g>
<path style="fill:none;stroke-width:1.2;stroke-linecap:butt;stroke-linejoin:miter;stroke:rgb(0%,0%,0%);stroke-opacity:1;stroke-miterlimit:10;" d="M 91.089844 216.25 L 61.316406 209.09375 "/>
<path style="fill:none;stroke-width:1.2;stroke-linecap:butt;stroke-linejoin:miter;stroke:rgb(0%,0%,0%);stroke-opacity:1;stroke-miterlimit:10;" d="M 89.796875 208.53125 L 65.976562 202.804688 "/>
<path style="fill:none;stroke-width:1.2;stroke-linecap:butt;stroke-linejoin:miter;stroke:rgb(0%,0%,0%);stroke-opacity:1;stroke-miterlimit:10;" d="M 112.175781 194.042969 L 91.089844 216.25 "/>
<path style="fill:none;stroke-width:1.2;stroke-linecap:butt;stroke-linejoin:miter;stroke:rgb(0%,0%,0%);stroke-opacity:1;stroke-miterlimit:10;" d="M 61.316406 209.09375 L 52.628906 179.730469 "/>
<path style="fill:none;stroke-width:1.2;stroke-linecap:butt;stroke-linejoin:miter;stroke:rgb(0%,0%,0%);stroke-opacity:1;stroke-miterlimit:10;" d="M 52.628906 179.730469 L 73.710938 157.523438 "/>
<path style="fill:none;stroke-width:1.2;stroke-linecap:butt;stroke-linejoin:miter;stroke:rgb(0%,0%,0%);stroke-opacity:1;stroke-miterlimit:10;" d="M 59.960938 182.472656 L 76.828125 164.707031 "/>
<path style="fill:none;stroke-width:1.2;stroke-linecap:butt;stroke-linejoin:miter;stroke:rgb(0%,0%,0%);stroke-opacity:1;stroke-miterlimit:10;" d="M 73.710938 157.523438 L 103.484375 164.679688 "/>
<path style="fill:none;stroke-width:1.2;stroke-linecap:butt;stroke-linejoin:miter;stroke:rgb(0%,0%,0%);stroke-opacity:1;stroke-miterlimit:10;" d="M 73.710938 157.523438 L 65.023438 128.160156 "/>
<path style="fill:none;stroke-width:1.2;stroke-linecap:butt;stroke-linejoin:miter;stroke:rgb(0%,0%,0%);stroke-opacity:1;stroke-miterlimit:10;" d="M 103.484375 164.679688 L 112.175781 194.042969 "/>
<path style="fill:none;stroke-width:1.2;stroke-linecap:butt;stroke-linejoin:miter;stroke:rgb(0%,0%,0%);stroke-opacity:1;stroke-miterlimit:10;" d="M 97.445312 169.664062 L 104.398438 193.152344 "/>
<path style="fill:none;stroke-width:1.2;stroke-linecap:butt;stroke-linejoin:miter;stroke:rgb(0%,0%,0%);stroke-opacity:1;stroke-miterlimit:10;" d="M 112.175781 194.042969 L 141.949219 201.203125 "/>
<path style="fill:none;stroke-width:1.2;stroke-linecap:butt;stroke-linejoin:miter;stroke:rgb(0%,0%,0%);stroke-opacity:1;stroke-miterlimit:10;" d="M 65.867188 124.660156 L 50.980469 121.082031 "/>
<path style="fill:none;stroke-width:1.2;stroke-linecap:butt;stroke-linejoin:miter;stroke:rgb(100%,0%,0%);stroke-opacity:1;stroke-miterlimit:10;" d="M 50.980469 121.082031 L 36.09375 117.503906 "/>
<path style="fill:none;stroke-width:1.2;stroke-linecap:butt;stroke-linejoin:miter;stroke:rgb(0%,0%,0%);stroke-opacity:1;stroke-miterlimit:10;" d="M 64.183594 131.664062 L 49.292969 128.085938 "/>
<path style="fill:none;stroke-width:1.2;stroke-linecap:butt;stroke-linejoin:miter;stroke:rgb(100%,0%,0%);stroke-opacity:1;stroke-miterlimit:10;" d="M 49.292969 128.085938 L 34.40625 124.507812 "/>
<path style="fill:none;stroke-width:1.2;stroke-linecap:butt;stroke-linejoin:miter;stroke:rgb(0%,0%,0%);stroke-opacity:1;stroke-miterlimit:10;" d="M 65.023438 128.160156 L 75.566406 117.058594 "/>
<path style="fill:none;stroke-width:1.2;stroke-linecap:butt;stroke-linejoin:miter;stroke:rgb(0%,0%,100%);stroke-opacity:1;stroke-miterlimit:10;" d="M 75.566406 117.058594 L 86.109375 105.957031 "/>
<path style=" stroke:none;fill-rule:nonzero;fill:rgb(100%,100%,100%);fill-opacity:1;" d="M 25.25 114.003906 L 35.25 114.003906 L 35.25 128.003906 L 25.25 128.003906 Z M 25.25 114.003906 "/>
<g style="fill:rgb(100%,0%,0%);fill-opacity:1;">
  <use xlink:href="#glyph0-2" x="25.25" y="125.142578"/>
</g>
<path style="fill:none;stroke-width:1.2;stroke-linecap:butt;stroke-linejoin:miter;stroke:rgb(0%,0%,100%);stroke-opacity:1;stroke-miterlimit:10;" d="M 86.109375 105.957031 L 81.765625 91.273438 "/>
<path style="fill:none;stroke-width:1.2;stroke-linecap:butt;stroke-linejoin:miter;stroke:rgb(0%,0%,0%);stroke-opacity:1;stroke-miterlimit:10;" d="M 81.765625 91.273438 L 77.417969 76.59375 "/>
<path style="fill:none;stroke-width:1.2;stroke-linecap:butt;stroke-linejoin:miter;stroke:rgb(0%,0%,100%);stroke-opacity:1;stroke-miterlimit:10;" d="M 86.109375 105.957031 L 100.996094 109.535156 "/>
<path style="fill:none;stroke-width:1.2;stroke-linecap:butt;stroke-linejoin:miter;stroke:rgb(0%,0%,0%);stroke-opacity:1;stroke-miterlimit:10;" d="M 100.996094 109.535156 L 115.882812 113.113281 "/>
<path style=" stroke:none;fill-rule:nonzero;fill:rgb(100%,100%,100%);fill-opacity:1;" d="M 82.109375 98.957031 L 91.109375 98.957031 L 91.109375 112.957031 L 82.109375 112.957031 Z M 82.109375 98.957031 "/>
<g style="fill:rgb(0%,0%,100%);fill-opacity:1;">
  <use xlink:href="#glyph0-3" x="82.109375" y="110.095703"/>
</g>
<path style="fill:none;stroke-width:1.2;stroke-linecap:butt;stroke-linejoin:miter;stroke:rgb(0%,0%,0%);stroke-opacity:1;stroke-miterlimit:10;" d="M 77.417969 76.59375 L 98.503906 54.386719 "/>
<path style="fill:none;stroke-width:1.2;stroke-linecap:butt;stroke-linejoin:miter;stroke:rgb(0%,0%,0%);stroke-opacity:1;stroke-miterlimit:10;" d="M 115.882812 113.113281 L 120.226562 127.792969 "/>
<path style="fill:none;stroke-width:1.2;stroke-linecap:butt;stroke-linejoin:miter;stroke:rgb(0%,0%,100%);stroke-opacity:1;stroke-miterlimit:10;" d="M 120.226562 127.792969 L 124.570312 142.476562 "/>
<path style="fill:none;stroke-width:1.2;stroke-linecap:butt;stroke-linejoin:miter;stroke:rgb(0%,0%,0%);stroke-opacity:1;stroke-miterlimit:10;" d="M 123.660156 114.003906 L 127.136719 125.75 "/>
<path style="fill:none;stroke-width:1.2;stroke-linecap:butt;stroke-linejoin:miter;stroke:rgb(0%,0%,100%);stroke-opacity:1;stroke-miterlimit:10;" d="M 127.136719 125.75 L 130.609375 137.496094 "/>
<path style="fill:none;stroke-width:1.2;stroke-linecap:butt;stroke-linejoin:miter;stroke:rgb(0%,0%,0%);stroke-opacity:1;stroke-miterlimit:10;" d="M 136.964844 90.90625 L 115.882812 113.113281 "/>
<path style="fill:none;stroke-width:1.2;stroke-linecap:butt;stroke-linejoin:miter;stroke:rgb(0%,0%,100%);stroke-opacity:1;stroke-miterlimit:10;" d="M 124.570312 142.476562 L 139.457031 146.054688 "/>
<path style="fill:none;stroke-width:1.2;stroke-linecap:butt;stroke-linejoin:miter;stroke:rgb(0%,0%,0%);stroke-opacity:1;stroke-miterlimit:10;" d="M 139.457031 146.054688 L 154.34375 149.632812 "/>
<path style=" stroke:none;fill-rule:nonzero;fill:rgb(100%,100%,100%);fill-opacity:1;" d="M 120.570312 135.476562 L 129.570312 135.476562 L 129.570312 149.476562 L 120.570312 149.476562 Z M 120.570312 135.476562 "/>
<g style="fill:rgb(0%,0%,100%);fill-opacity:1;">
  <use xlink:href="#glyph0-3" x="120.570312" y="146.615234"/>
</g>
<path style="fill:none;stroke-width:1.2;stroke-linecap:butt;stroke-linejoin:miter;stroke:rgb(0%,0%,0%);stroke-opacity:1;stroke-miterlimit:10;" d="M 154.34375 149.632812 L 164.886719 138.527344 "/>
<path style="fill:none;stroke-width:1.2;stroke-linecap:butt;stroke-linejoin:miter;stroke:rgb(0%,0%,100%);stroke-opacity:1;stroke-miterlimit:10;" d="M 164.886719 138.527344 L 175.429688 127.425781 "/>
<path style="fill:none;stroke-width:1.2;stroke-linecap:butt;stroke-linejoin:miter;stroke:rgb(0%,0%,0%);stroke-opacity:1;stroke-miterlimit:10;" d="M 151.226562 142.449219 L 159.660156 133.566406 "/>
<path style="fill:none;stroke-width:1.2;stroke-linecap:butt;stroke-linejoin:miter;stroke:rgb(0%,0%,100%);stroke-opacity:1;stroke-miterlimit:10;" d="M 159.660156 133.566406 L 168.09375 124.683594 "/>
<path style="fill:none;stroke-width:1.2;stroke-linecap:butt;stroke-linejoin:miter;stroke:rgb(0%,0%,0%);stroke-opacity:1;stroke-miterlimit:10;" d="M 154.34375 149.632812 L 158.6875 164.3125 "/>
<path style="fill:none;stroke-width:1.2;stroke-linecap:butt;stroke-linejoin:miter;stroke:rgb(0%,0%,100%);stroke-opacity:1;stroke-miterlimit:10;" d="M 158.6875 164.3125 L 163.035156 178.996094 "/>
<path style="fill:none;stroke-width:1.2;stroke-linecap:butt;stroke-linejoin:miter;stroke:rgb(0%,0%,100%);stroke-opacity:1;stroke-miterlimit:10;" d="M 175.429688 127.425781 L 171.085938 112.742188 "/>
<path style="fill:none;stroke-width:1.2;stroke-linecap:butt;stroke-linejoin:miter;stroke:rgb(0%,0%,0%);stroke-opacity:1;stroke-miterlimit:10;" d="M 171.085938 112.742188 L 166.738281 98.0625 "/>
<path style=" stroke:none;fill-rule:nonzero;fill:rgb(100%,100%,100%);fill-opacity:1;" d="M 171.429688 120.425781 L 180.429688 120.425781 L 180.429688 134.425781 L 171.429688 134.425781 Z M 171.429688 120.425781 "/>
<g style="fill:rgb(0%,0%,100%);fill-opacity:1;">
  <use xlink:href="#glyph0-3" x="171.429688" y="131.564453"/>
</g>
<path style="fill:none;stroke-width:1.2;stroke-linecap:butt;stroke-linejoin:miter;stroke:rgb(0%,0%,0%);stroke-opacity:1;stroke-miterlimit:10;" d="M 166.738281 98.0625 L 136.964844 90.90625 "/>
<path style="fill:none;stroke-width:1.2;stroke-linecap:butt;stroke-linejoin:miter;stroke:rgb(0%,0%,0%);stroke-opacity:1;stroke-miterlimit:10;" d="M 162.078125 104.351562 L 138.261719 98.625 "/>
<path style="fill:none;stroke-width:1;stroke-linecap:butt;stroke-linejoin:miter;stroke:rgb(0%,0%,0%);stroke-opacity:1;stroke-miterlimit:10;" d="M 192.808594 186.152344 L 192.808594 186.152344 M 190.054688 184.953125 L 189.8125 185.96875 M 187.304688 183.757812 L 186.816406 185.785156 M 184.554688 182.558594 L 183.824219 185.601562 M 181.804688 181.363281 L 180.828125 185.417969 M 179.054688 180.164062 L 177.835938 185.234375 M 176.304688 178.96875 L 174.839844 185.050781 M 173.550781 177.769531 L 171.847656 184.867188 M 170.800781 176.574219 L 168.851562 184.683594 M 168.050781 175.375 L 165.859375 184.5 M 165.300781 174.175781 L 162.863281 184.316406 M 164.296875 173.742188 L 161.769531 184.25 "/>
<path style=" stroke:none;fill-rule:nonzero;fill:rgb(100%,100%,100%);fill-opacity:1;" d="M 154.035156 171.996094 L 172.035156 171.996094 L 172.035156 185.996094 L 154.035156 185.996094 Z M 154.035156 171.996094 "/>
<g style="fill:rgb(0%,0%,100%);fill-opacity:1;">
  <use xlink:href="#glyph0-3" x="154.035156" y="183.134766"/>
  <use xlink:href="#glyph0-4" x="163.011719" y="183.134766"/>
</g>
<path style="fill:none;stroke-width:1.2;stroke-linecap:butt;stroke-linejoin:miter;stroke:rgb(0%,0%,0%);stroke-opacity:1;stroke-miterlimit:10;" d="M 192.808594 186.152344 L 201.496094 215.515625 "/>
<path style="fill:none;stroke-width:1.2;stroke-linecap:butt;stroke-linejoin:miter;stroke:rgb(0%,0%,0%);stroke-opacity:1;stroke-miterlimit:10;" d="M 192.808594 186.152344 L 213.890625 163.945312 "/>
<path style="fill:none;stroke-width:1.2;stroke-linecap:butt;stroke-linejoin:miter;stroke:rgb(0%,0%,0%);stroke-opacity:1;stroke-miterlimit:10;" d="M 213.890625 163.945312 L 243.664062 171.101562 "/>
<path style="fill:none;stroke-width:1.2;stroke-linecap:butt;stroke-linejoin:miter;stroke:rgb(0%,0%,0%);stroke-opacity:1;stroke-miterlimit:10;" d="M 218.554688 157.65625 L 242.371094 163.378906 "/>
<path style="fill:none;stroke-width:1.2;stroke-linecap:butt;stroke-linejoin:miter;stroke:rgb(0%,0%,0%);stroke-opacity:1;stroke-miterlimit:10;" d="M 205.203125 134.582031 L 213.890625 163.945312 "/>
<path style="fill:none;stroke-width:1.2;stroke-linecap:butt;stroke-linejoin:miter;stroke:rgb(0%,0%,0%);stroke-opacity:1;stroke-miterlimit:10;" d="M 243.664062 171.101562 L 264.75 148.894531 "/>
<path style="fill:none;stroke-width:1.2;stroke-linecap:butt;stroke-linejoin:miter;stroke:rgb(0%,0%,0%);stroke-opacity:1;stroke-miterlimit:10;" d="M 264.75 148.894531 L 256.0625 119.53125 "/>
<path style="fill:none;stroke-width:1.2;stroke-linecap:butt;stroke-linejoin:miter;stroke:rgb(0%,0%,0%);stroke-opacity:1;stroke-miterlimit:10;" d="M 256.972656 148.003906 L 250.019531 124.511719 "/>
<path style="fill:none;stroke-width:1.2;stroke-linecap:butt;stroke-linejoin:miter;stroke:rgb(0%,0%,0%);stroke-opacity:1;stroke-miterlimit:10;" d="M 256.0625 119.53125 L 226.289062 112.375 "/>
<path style="fill:none;stroke-width:1.2;stroke-linecap:butt;stroke-linejoin:miter;stroke:rgb(0%,0%,0%);stroke-opacity:1;stroke-miterlimit:10;" d="M 226.289062 112.375 L 205.203125 134.582031 "/>
<path style="fill:none;stroke-width:1.2;stroke-linecap:butt;stroke-linejoin:miter;stroke:rgb(0%,0%,0%);stroke-opacity:1;stroke-miterlimit:10;" d="M 229.402344 119.558594 L 212.535156 137.324219 "/>
</g>
</svg>

<svg xmlns="http://www.w3.org/2000/svg" xmlns:xlink="http://www.w3.org/1999/xlink" width="300pt" height="300pt" viewBox="0 0 300 300"><defs><symbol overflow="visible"><path d="M.594 2.125V-8.47h6V2.126zm.672-.672h4.671V-7.78h-4.67zm0 0"/></symbol><symbol overflow="visible" id="a"><path d="M1.172-8.75h5.03v1H2.36v2.578h3.468v1h-3.47V0H1.173zm0 0"/></symbol><symbol overflow="visible" id="b"><path d="M4.734-7.953c-.867 0-1.554.324-2.062.97-.5.635-.75 1.51-.75 2.624 0 1.094.25 1.965.75 2.61.508.637 1.195.953 2.062.953.852 0 1.532-.316 2.032-.953.507-.645.765-1.516.765-2.61 0-1.113-.257-1.988-.764-2.624-.5-.645-1.18-.97-2.032-.97zm0-.953c1.22 0 2.192.414 2.922 1.234.74.824 1.11 1.93 1.11 3.313 0 1.376-.37 2.477-1.11 3.298C6.926-.24 5.953.17 4.734.17c-1.23 0-2.214-.41-2.953-1.234C1.04-1.882.673-2.984.673-4.36c0-1.382.367-2.488 1.11-3.312.738-.82 1.722-1.234 2.952-1.234zm0 0"/></symbol><symbol overflow="visible" id="c"><path d="M1.172-8.75h1.594l3.89 7.313V-8.75h1.14V0H6.204L2.328-7.313V0H1.172zm0 0"/></symbol><symbol overflow="visible" id="d"><path d="M1.172-8.75H2.36v3.594h4.296V-8.75h1.188V0H6.656v-4.172H2.36V0H1.17zm0 0"/></symbol></defs><g><path fill="#fff" d="M0 0h300v300H0z"/><path d="M99.78 245.613l-4.346-14.68" stroke-width="1.2" stroke="#3cc" stroke-miterlimit="10" fill="none"/><path d="M95.434 230.934L91.09 216.25" stroke-width="1.2" stroke="#000" stroke-miterlimit="10" fill="none"/><path d="M96.78 238.613h7v14h-7zm0 0" fill="#fff"/><use xlink:href="#a" x="96.781" y="249.752" fill="#3cc"/><path d="M91.09 216.25l-29.774-7.156M89.797 208.53l-23.82-5.725M112.176 194.043L91.09 216.25M61.316 209.094L52.63 179.73M52.63 179.73l21.08-22.207M59.96 182.473l16.868-17.766M73.71 157.523l29.774 7.157M73.71 157.523l-8.687-29.363M103.484 164.68l8.692 29.363M97.445 169.664l6.953 23.488M112.176 194.043l29.773 7.16M65.867 124.66l-14.887-3.578" stroke-width="1.2" stroke="#000" stroke-miterlimit="10" fill="none"/><path d="M50.98 121.082l-14.886-3.578" stroke-width="1.2" stroke="#f00" stroke-miterlimit="10" fill="none"/><path d="M64.184 131.664l-14.89-3.578" stroke-width="1.2" stroke="#000" stroke-miterlimit="10" fill="none"/><path d="M49.293 128.086l-14.887-3.578" stroke-width="1.2" stroke="#f00" stroke-miterlimit="10" fill="none"/><path d="M65.023 128.16l10.543-11.1" stroke-width="1.2" stroke="#000" stroke-miterlimit="10" fill="none"/><path d="M75.566 117.06l10.543-11.103" stroke-width="1.2" stroke="#00f" stroke-miterlimit="10" fill="none"/><path d="M25.25 114.004h10v14h-10zm0 0" fill="#fff"/><use xlink:href="#b" x="25.25" y="125.143" fill="#f00"/><path d="M86.11 105.957l-4.344-14.684" stroke-width="1.2" stroke="#00f" stroke-miterlimit="10" fill="none"/><path d="M81.766 91.273l-4.348-14.68" stroke-width="1.2" stroke="#000" stroke-miterlimit="10" fill="none"/><path d="M86.11 105.957l14.886 3.578" stroke-width="1.2" stroke="#00f" stroke-miterlimit="10" fill="none"/><path d="M100.996 109.535l14.887 3.578" stroke-width="1.2" stroke="#000" stroke-miterlimit="10" fill="none"/><path d="M82.11 98.957h9v14h-9zm0 0" fill="#fff"/><use xlink:href="#c" x="82.109" y="110.096" fill="#00f"/><path d="M77.418 76.594l21.086-22.207M115.883 113.113l4.344 14.68" stroke-width="1.2" stroke="#000" stroke-miterlimit="10" fill="none"/><path d="M120.227 127.793l4.343 14.684" stroke-width="1.2" stroke="#00f" stroke-miterlimit="10" fill="none"/><path d="M123.66 114.004l3.477 11.746" stroke-width="1.2" stroke="#000" stroke-miterlimit="10" fill="none"/><path d="M127.137 125.75l3.472 11.746" stroke-width="1.2" stroke="#00f" stroke-miterlimit="10" fill="none"/><path d="M136.965 90.906l-21.082 22.207" stroke-width="1.2" stroke="#000" stroke-miterlimit="10" fill="none"/><path d="M124.57 142.477l14.887 3.578" stroke-width="1.2" stroke="#00f" stroke-miterlimit="10" fill="none"/><path d="M139.457 146.055l14.887 3.578" stroke-width="1.2" stroke="#000" stroke-miterlimit="10" fill="none"/><path d="M120.57 135.477h9v14h-9zm0 0" fill="#fff"/><use xlink:href="#c" x="120.57" y="146.615" fill="#00f"/><path d="M154.344 149.633l10.543-11.106" stroke-width="1.2" stroke="#000" stroke-miterlimit="10" fill="none"/><path d="M164.887 138.527l10.543-11.1" stroke-width="1.2" stroke="#00f" stroke-miterlimit="10" fill="none"/><path d="M151.227 142.45l8.433-8.884" stroke-width="1.2" stroke="#000" stroke-miterlimit="10" fill="none"/><path d="M159.66 133.566l8.434-8.882" stroke-width="1.2" stroke="#00f" stroke-miterlimit="10" fill="none"/><path d="M154.344 149.633l4.344 14.68" stroke-width="1.2" stroke="#000" stroke-miterlimit="10" fill="none"/><path d="M158.688 164.313l4.347 14.683M175.43 127.426l-4.344-14.684" stroke-width="1.2" stroke="#00f" stroke-miterlimit="10" fill="none"/><path d="M171.086 112.742l-4.348-14.68" stroke-width="1.2" stroke="#000" stroke-miterlimit="10" fill="none"/><path d="M171.43 120.426h9v14h-9zm0 0" fill="#fff"/><use xlink:href="#c" x="171.43" y="131.564" fill="#00f"/><path d="M166.738 98.063l-29.773-7.157M162.078 104.352l-23.816-5.727" stroke-width="1.2" stroke="#000" stroke-miterlimit="10" fill="none"/><path d="M192.81 186.152m-2.755-1.2l-.243 1.017m-2.507-2.212l-.49 2.027m-2.26-3.226l-.73 3.042m-2.02-4.24l-.977 4.056m-1.773-5.254l-1.22 5.07m-1.53-6.265l-1.465 6.08m-1.29-7.28l-1.702 7.097m-1.047-8.293l-1.948 8.11m-.8-9.31l-2.193 9.126m-.56-10.324l-2.437 10.14m1.434-10.574l-2.527 10.508" stroke="#000" stroke-miterlimit="10" fill="none"/><path d="M154.035 171.996h18v14h-18zm0 0" fill="#fff"/><g fill="#00f"><use xlink:href="#c" x="154.035" y="183.135"/><use xlink:href="#d" x="163.012" y="183.135"/></g><path d="M192.81 186.152l8.686 29.364M192.81 186.152l21.08-22.207M213.89 163.945l29.774 7.157M218.555 157.656l23.816 5.723M205.203 134.582l8.688 29.363M243.664 171.102l21.086-22.207M264.75 148.895l-8.688-29.364M256.973 148.004l-6.953-23.492M256.063 119.53l-29.774-7.155M226.29 112.375l-21.087 22.207M229.402 119.56l-16.867 17.764" stroke-width="1.2" stroke="#000" stroke-miterlimit="10" fill="none"/></g></svg>
